X:1
T:Title
%%score { 1 | 2 } { ( 3 5 ) | 4 }
L:1/8
Q:1/4=115
M:4/4
K:Bb
V:1 treble nm="Grand Piano, Unnamed-000"
V:2 treble 
V:3 bass nm="Choir Pad, Lindisfarne"
V:5 bass 
V:4 bass 
V:1
 F2 F2 B2 F2 | G2 B2 c4 | d2 c2 B2 d2 | c2 G2 A2 F2 | F2 F2 B2 F2 | B2 c2 d4 | B2 F2 G2 c2 | %7
w: By~John~Bacchus~Dykes~(1823\-1876) * * *|||||||
 c2 d2 e2 c2 | B4 c2 B2 | B2 A2 B4- | B4 z4 |] %11
w: ||||
V:2
 D2 D2 F2 D2 | E2 E2 E4 | D2 F2 D2 F2 | F2 =ED C2 C2 | B,2 E2 D2 D2 | D2 G2 ^F4 | D2 z2 F2 E2 | %7
 E2 D2 C2 F2 | F4 _A2 G2 | F4 F4- | F4 z4 |] %11
V:3
 F,2 F,2 D2 B,2 | B,2 B,2 A,4 | F,2 A,2 B,2 z A, | G,A, B,2 A,2 A,2 | F,2 A,2 B,2 DC | %5
 B,A, G,2 A,4 | B,2 B,2 B,2 B,2 | B,2 B,2 B,2 A,[K:treble]E | D4 E4 | C4 D4- | D4 z4 |] %11
V:4
 B,,2 B,,2 B,2 B,,2 | E,2 G,2 F,4 | B,,2 F,2 G,2 z2 | C,2 C,2 F,2 F,E, | D,2 C,2 B,,2 B,A, | %5
 G,F, E,2 D,4 | G,2 D,2 E,2 C,2 | F,2 F,2 F,2 F,2 | B,4 _A,2 E,2 | F,4 B,,4- | B,,4 z4 |] %11
V:5
 x8 | x8 | z4 z2 B,,2 | x8 | x8 | x8 | x8 | x7[K:treble] x | x8 | x8 | x8 |] %11

